X: 4273
T: CLOG DANCE
R: Hornpipe.
%R: hornpipe, reel
B: James Kerr "Merry Melodies" v.4 p.29 #273
Z: 2016 John Chambers <jc:trillian.mit.edu>
M: C|
L: 1/8
K: A
|:\
A>ce>c a>ec>A | d2f2 d2f2 |\
[1 A>ce>c a>ec>A | B2e2 B2e2 :|\
[2 e>ag>f (3efe (3dcB | A2c2A2 z2 |]
|:\
A2c>e A2c>e | d2f2 d2f2 |\
[1 A2c>e A2c>e | B2e2 B2e2 :|\
[2 e>a g>f (3efe (3dcB | A2a2A2 z2 |]

%%sep 1 1 500
%%sep 1 1 500

